static/assets/img/icons/theme/communication/thumbtack.svg

<svg height="24" viewBox="0 0 24 24" width="24" xmlns="http://www.w3.org/2000/svg"><g fill="none" fill-rule="evenodd"><path d="m0 0h24v24h-24z" opacity="0"/><g fill="#000"><path d="m11.6734943 8.3307728 3.3258131-2.23097788-.8779819-.87798189c-.3905243-.39052429-.3905243-1.02368927 0-1.41421356l1.4142135-1.41421356c.3905243-.3905243 1.0236893-.3905243 1.4142136 0l5.6568542 5.65685425c.3905243.39052429.3905243 1.02368927 0 1.41421356l-1.4142135 1.41421358c-.3905243.3905243-1.0236893.3905243-1.4142136 0l-.8779464-.8779465-2.230996 3.32584c.2571772.9257656.329257 1.9054628.1971999 2.8826858l-.4319674 3.1965583c-.0739608.54731-.5776003.9310354-1.1249103.8570746-.2169904-.0293231-.4183589-.1290557-.5731889-.2838857l-9.71537166-9.7153717c-.39052429-.39052426-.39052429-1.02368924 0-1.41421353.15483003-.15483003.35619849-.25456263.57318889-.28388565l3.19655834-.43196735c.97724496-.13206013 1.95696423-.05997407 2.88274813.19721723z"/><path d="m5.55025253 13.9497475v5.7142857l1.5 2.2857143 1.5-2.2857143v-5.7142857z" opacity=".3" transform="matrix(.70710678 .70710678 -.70710678 .70710678 14.757359 .272077)"/></g></g></svg>

<svg width="24px" height="24px" viewBox="0 0 24 24" version="1.1" xmlns="http://www.w3.org/2000/svg" xmlns:xlink="http://www.w3.org/1999/xlink">
    <title>Icon For Thumbtack</title>
    <g stroke="none" stroke-width="1" fill="none" fill-rule="evenodd">
        <rect opacity="0" x="0" y="0" width="24" height="24"></rect>
        <path d="M11.6734943,8.3307728 L14.9993074,6.09979492 L14.1213255,5.22181303 C13.7308012,4.83128874 13.7308012,4.19812376 14.1213255,3.80759947 L15.535539,2.39338591 C15.9260633,2.00286161 16.5592283,2.00286161 16.9497526,2.39338591 L22.6066068,8.05024016 C22.9971311,8.44076445 22.9971311,9.07392943 22.6066068,9.46445372 L21.1923933,10.8786673 C20.801869,11.2691916 20.168704,11.2691916 19.7781797,10.8786673 L18.9002333,10.0007208 L16.6692373,13.3265608 C16.9264145,14.2523264 16.9984943,15.2320236 16.8664372,16.2092466 L16.4344698,19.4058049 C16.360509,19.9531149 15.8568695,20.3368403 15.3095595,20.2628795 C15.0925691,20.2335564 14.8912006,20.1338238 14.7363706,19.9789938 L5.02099894,10.2636221 C4.63047465,9.87309784 4.63047465,9.23993286 5.02099894,8.84940857 C5.17582897,8.69457854 5.37719743,8.59484594 5.59418783,8.56552292 L8.79074617,8.13355557 C9.76799113,8.00149544 10.7477104,8.0735815 11.6734943,8.3307728 Z" fill="#000000"></path>
        <polygon fill="#000000" opacity="0.3" transform="translate(7.050253, 17.949747) rotate(-315.000000) translate(-7.050253, -17.949747) " points="5.55025253 13.9497475 5.55025253 19.6640332 7.05025253 21.9497475 8.55025253 19.6640332 8.55025253 13.9497475"></polygon>
    </g>
</svg>
